X: 42392
T: Wellington's Advance
R: jig
M: 6/8
K: Aminor
|:EAA AGE|GAB c2d|efe dcB|cAA GED|
EAA AGE|GAB c2d|efe dcB|1 cAA AGF:|2 cAA A2e||
|:eaa gab|agg ede|aag e3|BAB GED|
EAA AGE|GAB c2d|efe dcB|1 cAA A2e:|2 cAA A2G||

